X: 14071
T: Over the water to Charlie
T: O'er the water to Charlie
%R: jig
B: James Oswald "The Caledonian Pocket Companion" v.1 b.4 p.7
S: https://ia800501.us.archive.org/18/items/caledonianpocket01rugg/caledonianpocket01rugg_bw.pdf
Z: 2020 John Chambers <jc:trillian.mit.edu>
M: 6/8
L: 1/8
K: D
|: "_Brisk"\
A2A (AB)G | (FG)E (DF)G | (AB)A (AF)A | B3 d3 |\
D2D (DE)F | (GA)F TE2D | (dc)B (AF)A | B3 d3 :|
|:\
d2e (fg)f | (ef)d (ec)A | d2e (fg)f | Te3 A3 |\
d2e (fg)f | (ef)d (ec)A | (B/c/d)B AFA | B3 d3 :|
|:\
(AF)D (AF)D | (BG)E (BG)E | AFD EFA | TB3 d3 |\
AFD dAF | GAF TE2D | fed AFA | TB3 d3 :|
|:\
dfd dfd | ecA acA | dfd dfd | Te3 A3 |\
dfd afd | (c/d/e)c ecA | (B/c/d)B AFA | B3 d3 :|
|:\
AAD BBD | AAD TE2D | dfD EFA | TB3 d3 |\
DDd EEd  | FFd TE3D | (f/g/f/e/)d AFA | B3 d3 :|
|:\
fdf (a/g/f/e/)d | ecA ecA | fdf (a/g/f/e/)d | fdf (a/g/f/e/)d |\
(g/f/g/a/)g (f/e/f/g/)f | efd (e/d/c/B/)A | (B/c/d)B AFA |
TB3 d3 ::\
(D/E/F/G/)A DFA | (E/F/G/A/)B EGB | (D/E/F/G/)A DFA | B3 d3 |\
DdD AdD | BdD TE2D | (a/g/f/e/)d AFA | TB3 d3 :|
|:\
(a/g/f/e/)d (a/g/f/e/)d | ecA acA | (a/g/f/e/)d (a/g/f/e/)d | Tf3 a3 |\
ggb ffa | efd ecA | (B/c/d)B AFA | TB3 d3 :|
